X:34
M:C
L:1/8
Q:"Spiritoso  "1/4=140
K:Bb
!p!DF|L[G2D2B,2].G2.G2 (Ac)|L[d2B2G2].G2.G2 (FD)|\
L[F2C2A,2].F2 FGAB|Bd[c=E]B [A2F2] GF|
[B3D3] B [c2A2F2]c2|"_cres."([d2B2]f2[A2F2D2]) (GF|\
[A2F2] (GF) c2F2|ABcd c2 BA|

